X:1
T:Pathways
C:Jackie Tolliday-Bailey
R:hornpipe
M:4/4
L:1/8
K:Bb
G,A,B,A, G,A,B,A, | G,A,B,A, D4 | G,A,B,A, G,A,B,A, | G,A,B,A, A,4 |
G,A,B,A, G,A,B,A, | G,A,B,A, D4 | dDFA cBAF | FAcA G4 ||
GABc d2 z2 | FGAB c2 z2 | GABc d2 z2 | dedc dcBA |
GABc d2 z2 |  FGAB c2 z2 | GABc d2 z2 | cFcA G4 |]
